X:1
T:I. The Vagabond
T:I. The Vagabond
T:Songs of Travel
T:R. Vaughan Williams
T:R.L. Stevenson
C:R. Vaughan Williams
Z:R.L. Dtevenson
%%score 1 { ( 2 3 ) | ( 4 5 ) }
L:1/8
Q:1/4=105
M:4/4
K:Eb
V:1 treble nm="Voice"
V:2 treble nm="Piano"
V:3 treble 
V:4 bass 
V:5 bass 
V:1
"^Allegro moderato.\n(alla marcia)\n" z8 | z8 | z8 | z8 | z8 | z8 | %6
w: ||||||
"^risoluto." (3:2:2C2 E (3:2:2G2 G G2 B2 | G4 .G .F .E .F | G4 C2 z2 | %9
w: Give to me the life I|love, Let the lave go|by me.|
 (3:2:2E2 _G (3:2:2B2 B B2 _d2 | B4 .B .A ._G .A | B4 B2 z2 |!p! B2 B A B2 c2 | _d3 A _F2 z2 | %14
w: Give the jol- ly heaven a-|bove, And the by- way|nigh me|Bed in the bush with|stars to see,|
 (A3 _G A2 B B |!<(! _c8!<)! | B2) z2!f! e3 e | _d2 _G G A2 B2 |!>(! E8-!>)! | E2 z2!p! C3 E | %20
w: Bread I dip in the|ri-|ver There's the|life for a man like|me,|_ There's the|
!<(! G6!<)!!>(! (B2 | C4)!>)! C2 z2 | z8 | z8 | z8 | z8 | (3:2:2C2 E (3:2:2G2 G G2 B2 | %27
w: life for|ev- er.|||||Let the blow fall soon or|
 G4 .G .F .E .F | G4 C2 z2 | (3:2:2E2 _G (3:2:2B2 B B2 _d2 | B4 .B .A ._G .A | B4 B2 z2 | %32
w: late, Let what will be|o'er me;|Give the face of earth a-|round, And the road be-|fore me.|
 B3 A B2 c2 | _d3 A _F2 z2 | A2 (A_G) A2 B2 |!<(! (_c8!<)! | B2) z2!f! !tenuto!e2 !tenuto!e2 | %37
w: Wealth I seek not,|hope nor love,|Nor a _ friend to|know|me; All I|
 _d3 _G A2 B2 |!>(! G8-!>)! | G2 z2!p! C3 E |!<(! G6!<)!!>(! (B2 | C4)!>)! C2 z2 | z8 || %43
w: seek, the heaven a-|bove,|_ And the|road be-|low me.||
[K:G][Q:1/4=115]"^Animando.\n" z4!mf! E3 F | G2 E2 F2 D2 | E4 .E .F .G .F | (E4 D4) | B,4 z4 | %48
w: Or let|au- tumn fall on|me Where a- field I|lin- *|ger,|
 G3 A _B2 G2 | A2 =F2 D4 |!<(! (GA) _B c!<)!!f! d4 | ^c4 A4 |!f! (_B3 B _A2 _D2 | _E2 =F2 ^F4) | %54
w: Si- lenc- ing the|bird on tree,|Bit- * ing the blue|fin- ger.|White as meal the|fros- ty field|
 (F3 F =E2 A,2 | B,4 ^C4) | z4[Q:1/4=120]"^\nancora animando. \n"!f! A3 B | c2 B2 A2 G2 | %58
w: Warm the fire side|ha- ven|Not to|au- tumn will I|
 E4!<(! c3!<)! d ||[K:Eb][Q:1/4=105]"^Tempo I.\n" _e6 d2 | c2 G2 z4 | z8 | z8 | z8 | %64
w: yield, Not to|win- ter|e- ven!||||
"^parlante."!pp! (3:2:2C2 .E (3:2:2.G2 .G G2 B2 | G4 .G .F .E .F | G4 C2 z2 | %67
w: Let the blow fall soon or|late, Let what will be|o'er me;|
 (3:2:2.E2 ._G (3:2:2.B2 .B B2 _d2 | B4 .B .A ._G .A | B4 B2 z2 |!pp! B3 A B2 c2 | _d3 A _F4 | %72
w: Give the face of earth a-|round, And the road be-|fore me.|Wealth I ask not,|hope nor love,|
 (A2 (A_G) A2 B2 |!<(! _c8!<)! |"^portamento."!<(! B4!<)!!ff! !tenuto!e2 !tenuto!e2 | %75
w: Nor a _ friend to|know|me; All I|
 _d3) (_G A2 B2 |!>(! E8-)!>)! | E2 z2!pp! C3 E |!<(! G6!<)!!>(! (B2 | C4)!>)! C2 z2 | z8 | z8 | %82
w: ask, the heaven a-|bove,|_ And the|road be-|low me.|||
 z8 | !fermata!z8 |] %84
w: ||
V:2
!p!"_ma sempre marcato" z4 (3:2:2.[Gc]2 .e (3:2:2.g2 .g | [Gcg]4 z4 | %2
 z4 (3:2:2.[G,C]2 .E (3:2:2.G2 .G | ([G,CG]6 [DFB]2) | !tenuto!C8 | !tenuto!C8 | C4 [CEG]2 [DFB]2 | %7
 [CEG]4 .[EG].[DF].[CE].[DF] | [CEG]8 | [B,E_G]4 [EGB]2 [FA_d]2 | [_GB]4 .[GB].[FA].[EG].[FA] | %11
 [B,_D_GB]8 | .[E_GB]2 .[EGB].[EFA] .[EGB]2 .[EGc]2 | [=E^c]3 [^D^G] E2 [A,^F]2 | %14
 [^G,=B,^G]2 [=EG][^D^F] [EG]2 [^CE^A]2 |!<(! [=B,=D^F=B]8!<)! | [_B,=D=F_B]4!f! [E_GBe]3 [EGBe] | %17
 [_DA_d]2 _G2 A2 B2 |!>(! [A,=CE]8!>)! |!pp! (3:2:2.[Gc]2 .e (3:2:2.g2 .g [Gcg]4- | %20
"_colla voce" ([Gcg]6 [ceb]2) |!pp! !tenuto!C8 | z4 (3:2:2.C2 .E (3:2:2.G2 .G | ([G,CG]6 [DFB]2) | %24
 !tenuto!C8 | !tenuto!C8 | !tenuto!C4 [CEG]2 [DFB]2 | [CEG]4 .[EG].[DF].[CE].[DF] | [CEG]8 | %29
 [B,E_G]4 [EGB]2 [FA_d]2 | [E_GB]4 [GB][FA][EG][FA] | [B,_D_GB]8 | %32
 .[E_GB]2 .[EGB].[EFA] .[EGB]2 .[EGc]2 | [=E^c]3 [^D^G] E2 [=A,^F]2 | %34
 [^G,=B,^G]2 [=EG][^D^F] [EG]2 [^CE^A]2 |!<(! [=B,=D^F=B]8!<)! | %36
 [_B,=D=F_B]4!f! (!tenuto![E_GBe]2 !tenuto![EGBe]2 | [_DA_d]3 [DF_G] [_CEA]2 [B,=DB]2) | %38
!>(! [A,=CE]8!>)! |!pp! (3:2:2.[Gc]2 .e (3:2:2.g2 .g [Gcg]4- |"_colla voce" [Gcg]6 [ceb]2 | %41
 !tenuto!C8 |!<(! !tenuto!C6!<)! D2 ||[K:G]!mf! [G,B,E]4 [G,B,E]3 [G,B,F] | %44
 [G,B,G]2 [G,B,E]2 [G,B,F]2 [G,B,D]2 | [B,E]4 .E.F.G.F | E4 D4 | B,4 .^G,.B,.E.F | %48
 [_B,D=G]3 [B,DA] [B,D_B]2 [B,DG]2 | [_B,DA]2 [B,D=F]2 [B,D]4 |!<(! GA_Bc!<)!!f! d4 | ^c4 A4 | %52
!f! (_B4 _A2 _D2 | _E2 =F2 ^F4) | (F4 E2 A,2 | B,4) .^C[I:staff +1].^D,.^E,.^G, | %56
[I:staff -1] .^C.^D.^E.^G!f! [=C=EA]3 [CEB] | [CEc]2 [CEB]2 [CEA]2 [CEG]2 | %58
 [A,CE]4!<(! .[_EGc].[EGd].[EG_e].[EGd]!<)! ||[K:Eb]!ff! z4 (3:2:2.c2 .e (3:2:2.g2 .g | %60
"_dim." [Gcg]4 (3:2:2.[G,C]2 .E (3:2:2.[G,CG]2 .[G,CG] | ([G,CG]6 [DFB]2) | !tenuto!C8 | %63
 !tenuto!C8 |!pp!"_ma marcato" C4 [CEG]2 [DFB]2 | [CEG]4 C4 | [CEG]8 | [B,E_G]4 [EGB]2 [FA_d]2 | %68
 [E_GB]4 E2 _C2 | [B,_D_GB]8 |!pp! .[E_GB]2 .[EGB].[EFA] .[EGB]2 .[EGc]2 | %71
 [=E^c]3 [^D^G] E2 [=A,^F]2 | [^G,=B,^G]2 [=EG][^D^F] [EG]2 [^CE^A]2 |!<(! [=B,=D^F=B]8!<)! | %74
 [_B,=D=F_B]4!ff! (!tenuto![E_GBe]2 !tenuto![EGBe]2 | [_DA_d]3 [DF_G] [_CEA]2 [B,=DB]2) | %76
!>(! [A,=CE]8!>)! |!pp! (3:2:2.[Gc]2 .e (3:2:2.g2 .g [Gcg]4- |"_colla voce" [Gcg]6 [ceb]2 | %79
!pp! C8 | !tenuto!C8 | !tenuto!C8- | !tenuto!C8 | !fermata!C8 |] %84
V:3
 x6 (3:2:2[Gc]2 [Gc] | x8 | x6 (3:2:2[G,C]2 [G,C] | x8 | x8 | x8 | x8 | x4 C4 | x8 | x8 | E6 _C2 | %11
 x8 | x8 | x4 !tenuto!^C4 | x8 | x8 | x8 | x2 [_DF]2 [_CE]2 [B,=D]2 | x8 | x2 (3:2:2[Gc]2 [Gc] x4 | %20
 x8 | x8 | x4 C2 (3:2:2[G,C]2 [G,C] | x8 | x8 | x8 | x8 | x4 C4 | x8 | x8 | x4 E2 _C2 | x8 | x8 | %33
 x4 !tenuto!^C4 | x8 | x8 | x8 | x8 | x8 | x2 (3:2:2[Gc]2 [Gc] x4 | x8 | x8 | x8 ||[K:G] x8 | x8 | %45
 .G,.F,.G,.B, [G,B,]4 | z2 !tenuto![G,B,]2 z2 !tenuto![F,B,]2 | z2 .[E,^G,].F, x4 | x8 | %49
 x4 .G,.A,._B,.D | x4 z2 !tenuto![DG_B]2 | z2 !tenuto![^CEA]2 z2 !tenuto![A,D!courtesy!^F]2 | %52
 _B,_DB,D x4 | x4 F,^G,=A,^C | x8 | x8 | x8 | x8 | x8 ||[K:Eb] [EGc]2 B2 G2 (3:2:2[Gc]2 [Gc] | x8 | %61
 x8 | x8 | x8 | x8 | x4 .[EG].[DF].[CE].[DF] | x8 | x8 | x4 .[_GB].[FA].[EG].[FA] | x8 | x8 | %71
 x4 !tenuto!^C4 | x8 | x8 | x8 | x8 | x8 | x2 (3:2:2[Gc]2 [Gc] x4 | x8 | x8 | x8 | x8 | x8 | x8 |] %84
V:4
"_sempre pesante il basso" .[C,,G,,C,]2 .[D,,G,,D,]2 .[C,,G,,C,]2 .[D,,G,,D,]2 | %1
 .[C,,G,,C,]2 .[D,,G,,D,]2 .[C,,G,,C,]2 .[D,,G,,D,]2 | %2
 .[C,,G,,C,]2 .[D,,G,,D,]2 .[C,,G,,C,]2 .[D,,G,,D,]2 | %3
!<(! .[C,,G,,C,]2 .[D,,G,,D,]2!<)!!>(! .[C,,G,,C,]2 .[D,,G,,D,]2!>)! | [E,G,]8 | [E,G,]8 | %6
 [E,G,]4 x4 | .[C,,G,,C,]2 .[D,,G,,D,]2 .[C,,G,,C,]2 .[D,,G,,D,]2 | %8
 .[C,,G,,C,]2 .[D,,G,,D,]2 .[C,,G,,C,]2 .[D,,G,,D,]2 | %9
 .[E,,B,,E,]2 .[F,,B,,F,]2 .[E,,B,,E,]2 .[F,,B,,F,]2 | %10
 .[E,,B,,E,]2 .[_D,,_D,]2 .[_C,,_C,]2 .[D,,D,]2 | %11
 .[_G,,,_G,,]2 .[B,,,B,,]2 .[G,,,G,,]2 .[B,,,B,,]2 | %12
 .[E,,,E,,]2 .[_G,,,_G,,]2 .[E,,,E,,]2 .[A,,,A,,]2 | %13
 .[^C,,^C,]2 .[^G,,,^G,,]2 .[C,,C,]2 .[^D,,^D,]2 | .[=E,,=E,]2 .[^G,,^G,]2 .[E,,E,]2 .[^F,,^F,]2 | %15
 [=B,,,=B,,]2 [=D,,=D,]2 [B,,,B,,]2 [^G,,,^G,,]2 | %16
 .[_B,,,_B,,]2 .[_A,,,_A,,]2 ([_G,,,_G,,]2 [E,,,E,,]2 | %17
 [F,,,F,,]2 [E,,,E,,]2 [F,,,F,,]2 [_G,,,_G,,]2) | .[A,,,A,,]2 .[C,,C,]2 .[A,,,A,,]2 .[C,,C,]2 | %19
 .[G,,,G,,]2 .[A,,,A,,]2 .[G,,,G,,]2 .[A,,,A,,]2 | %20
 .[G,,,G,,]2 .[A,,,A,,]2 .[G,,,G,,]2 .[E,,,E,,]2 | [E,G,]8 | %22
 .[C,,G,,C,]2 .[D,,G,,D,]2 .[C,,G,,C,]2 .[D,,G,,D,]2 | %23
 .[C,,G,,C,]2 .[D,,G,,D,]2 .[C,,G,,C,]2 .[D,,G,,D,]2 | [E,G,]8 | [E,G,]8 | [E,G,]4 x4 | %27
 .[C,,G,,C,]2 .[D,,G,,D,]2 .[C,,G,,C,]2 .[D,,G,,D,]2 | %28
 .[C,,G,,C,]2 .[D,,G,,D,]2 .[C,,G,,C,]2 .[D,,G,,D,]2 | %29
 .[E,,B,,E,]2 .[F,,B,,F,]2 .[E,,B,,E,]2 .[F,,B,,F,]2 | %30
 [E,,B,,E,]2 .[_D,,_D,]2 .[_C,,_C,]2 .[D,,D,]2 | %31
 .[_G,,,_G,,]2 .[B,,,B,,]2 .[G,,,G,,]2 .[B,,,B,,]2 | %32
 .[E,,,E,,]2 .[_G,,,_G,,]2 .[E,,,E,,]2 .[A,,,A,,]2 | [^C,,^C,]2 [^G,,,^G,,]2 [C,,C,]2 [^D,,^D,]2 | %34
 .[=E,,=E,]2 .[^G,,^G,]2 .[E,,E,]2 .[^F,,^F,]2 | [=B,,,=B,,]2 [=D,,=D,]2 [B,,,B,,]2 [^G,,,^G,,]2 | %36
 .[_B,,,_B,,]2 .[_A,,,_A,,]2 ([_G,,,_G,,]2 [E,,,E,,]2 | %37
 [F,,,F,,]2 [E,,,E,,]2 [F,,,F,,]2 [_G,,,_G,,]2) | .[A,,,A,,]2 .[C,,C,]2 .[A,,,A,,]2 .[C,,C,]2 | %39
 .[G,,,G,,]2 .[A,,,A,,]2 .[G,,,G,,]2 .[A,,,A,,]2 | %40
 .[G,,,G,,]2 .[A,,,A,,]2 .[G,,,G,,]2 .[E,,,E,,]2 | [E,G,]8 | [E,G,]6 x2 || %43
[K:G] [E,,E,]2 [F,,F,]2 [E,,E,]2 [F,,F,]2 | [E,,E,]2 [B,,,B,,]2 [D,,D,]2 [B,,,B,,]2 | %45
 .[E,,E,].F,,.G,,.B,, .E,.F,.G,.F, | E,4 D,4 | B,,4 .^G,,.B,,.E,.F, | %48
 [=G,,=G,]2 [A,,A,]2 [G,,G,]2 [D,,D,]2 | [=F,,=F,]2 [D,,D,]2 .G,,.A,,._B,,.D, | %50
 [G,,G,][A,,A,][_B,,_B,][C,C] [D,D]4 | ^C4 A,4 | [_B,,,_B,,]4 _A,C_D,=F, | _E,_G,=F,_A, ^F,,4 | %54
 F,A,F,A, E,^G,!8vb(!A,,,!8vb)!^C, | B,,D,B,,D,!8vb(! ^C,,,!8vb)!^D,,!<(!^E,,^G,, | %56
 .^C,.^D,.^E,.^G,!<)! [A,,A,]3 [B,,B,] | C,2 [B,,B,]2 [A,,A,]2 [G,,G,]2 | %58
 [E,,E,]2 [D,,D,]2 .[C,,C,].[D,,D,].[_E,,_E,].[D,,D,] || %59
[K:Eb] [C,,C,]2 .[B,,B,]2 .[G,,G,]2 .[F,,F,]2 | [E,,E,]2 [D,,D,]2 [C,,C,]2 [B,,,B,,]2 | %61
 [G,,,G,,]2 [F,,,F,,]2 [E,,,E,,]2 [D,,,D,,]2 | [E,G,]8 | [E,G,]8 | [E,G,]4 x4 | %65
 .[C,,G,,C,]2 .[D,,G,,D,]2 .[C,,G,,C,]2 .[D,,G,,D,]2 | %66
 .[C,,G,,C,]2 .[D,,G,,D,]2 .[C,,G,,C,]2 .[D,,G,,D,]2 | %67
 .[C,,G,,C,]2 .[F,,B,,F,]2 .[C,,G,,C,]2 .[F,,B,,F,]2 | %68
 .[E,,B,,E,]2 .[_B,,,_B,,]2 .[_C,,_C,]2 .[D,,D,]2 | %69
 .[_G,,,_G,,]2 .[B,,,B,,]2 .[G,,,G,,]2 .[B,,,B,,]2 | %70
 .[E,,,E,,]2 .[_G,,,_G,,]2 .[E,,,E,,]2 .[A,,,A,,]2 | %71
 [^C,,^C,]2!8vb(! ^G,,,2!8vb)! [C,,C,]2 [^D,,^D,]2 | %72
 .[=E,,=E,]2 .[^G,,^G,]2 .[E,,E,]2 .[^F,,^F,]2 | [=B,,,=B,,]2 [=D,,=D,]2 [B,,,B,,]2 [^G,,,^G,,]2 | %74
 .[_B,,,_B,,]2 .[_A,,,_A,,]2 ([_G,,,_G,,]2 [E,,,E,,]2 | %75
 [F,,,F,,]2 [E,,,E,,]2 [F,,,F,,]2 [_G,,,_G,,]2) | .[A,,,A,,]2 .[C,,C,]2 .[A,,,A,,]2 .[C,,C,]2 | %77
 .[G,,,G,,]2 .[A,,,A,,]2 .[G,,,G,,]2 .[A,,,A,,]2 | %78
 [G,,,G,,]2 [A,,,A,,]2!>(! [G,,,G,,]2 [E,,,E,,]2!>)! | [E,G,]8 | [E,G,]8 | [E,G,]8- | [E,G,]8 | %83
 !fermata![C,,G,,C,E,G,]8 |] %84
V:5
 x8 | x8 | x8 | x8 | .[C,,G,,C,]2 .[D,,G,,D,]2 .[C,,G,,C,]2 .[D,,G,,D,]2 | %5
 .[C,,G,,C,]2 .[D,,G,,D,]2 .[C,,G,,C,]2 .[D,,G,,D,]2 | %6
 .[C,,G,,C,]2 .[D,,G,,D,]2 .[C,,G,,C,]2 .[D,,G,,D,]2 | x8 | x8 | x8 | x8 | x8 | x8 | x8 | x8 | x8 | %16
 x8 | x8 | x8 | x8 | x8 | .[C,,G,,C,]2 .[D,,G,,D,]2 .[C,,G,,C,]2 .[D,,G,,D,]2 | x8 | x8 | %24
 .[C,,G,,C,]2 .[D,,G,,D,]2 .[C,,G,,C,]2 .[D,,G,,D,]2 | %25
 .[C,,G,,C,]2 .[D,,G,,D,]2 .[C,,G,,C,]2 .[D,,G,,D,]2 | %26
 .[C,,G,,C,]2 .[D,,G,,D,]2 .[C,,G,,C,]2 .[D,,G,,D,]2 | x8 | x8 | x8 | x8 | x8 | x8 | x8 | x8 | x8 | %36
 x8 | x8 | x8 | x8 | x8 | .[C,,G,,C,]2 .[D,,G,,D,]2 .[C,,G,,C,]2 .[D,,G,,D,]2 | %42
 .[C,,G,,C,]2 .[D,,G,,D,]2 .[C,,G,,C,]2 .[D,,G,,D,]2 ||[K:G] x8 | x8 | x8 | %46
 z2 !tenuto![E,,B,,]2 z2 !tenuto![B,,,F,,B,,]2 | z2 .[E,,,B,,,E,,].F,, x4 | x8 | x8 | %50
 x4 z2 !tenuto![G,,D,G,]2 | z2 !tenuto![A,,E,A,]2 z2 !tenuto![D,,A,,D,]2 | %52
 x4 [_A,,,_A,,]2 [_D,,,_D,,]2 | [_E,,,_E,,]2 [=F,,,=F,,]2 ^F,,,^G,,,=A,,,^C,, | %54
 [F,,,F,,]4 [E,,,E,,]2!8vb(! A,,,,2!8vb)! | B,,,4!8vb(! x!8vb)! x3 | x8 | x8 | x8 ||[K:Eb] x8 | %60
 x8 | x8 | .[C,,G,,C,]2 .[D,,G,,D,]2!>(! .[C,,G,,C,]2 .[D,,G,,D,]2 | %63
 .[C,,G,,C,]2!>)! .[D,,G,,D,]2 .[C,,G,,C,]2 .[D,,G,,D,]2 | %64
 .[C,,G,,C,]2 .[D,,G,,D,]2 .[C,,G,,C,]2 .[D,,G,,D,]2 | x8 | x8 | x8 | x8 | x8 | x8 | %71
 x2!8vb(! x2!8vb)! x4 | x8 | x8 | x8 | x8 | x8 | x8 | x8 | %79
 .[C,,G,,C,]2"^dim." .[D,,G,,D,]2 .[C,,G,,C,]2 .[D,,G,,D,]2 | %80
 .[C,,G,,C,]2 .[D,,G,,D,]2 .[C,,G,,C,]2 .[D,,G,,D,]2 | .[C,,G,,C,]2 z2 .[D,,G,,D,]2 z2 | %82
 .[C,,G,,C,]2 z2 .[D,,G,,D,]2 z2 | x8 |] %84

